X:549
T:Gaudete (chorus)
Z:Jack Campin, http://www.campin.me.uk/
F:Jack Campin's Nine-Note Tunebook
% last edit 03-02-2013
C:anon. (Piae Cantiones 1582)
Z:ABC transcription Stephan Steiner
M:none
L:1/8
Q:1/4=120
V:1
V:2 transpose -12
V:3 transpose -12
V:4 bass middle=d transpose -24
K:DDor
[V:1]|:[M:4/4] D2D2 C2DE|[M:5/4] F2 FE2D C2  C2 |\
       [M:4/4] C2D2 E3 D|[M:5/4] C2 DE2D C2 HD2:|
[V:2]|:[M:4/4] A2A2 A2Ac|[M:5/4] c2 cc2A A2  A2 |\
       [M:4/4] A2A2 c3 A|[M:5/4] A2 Fc2G A2 HA2:|
[V:3]|:[M:4/4] D2F2 E2FG|[M:5/4] A2 AG2F E2  E2 |\
       [M:4/4] E2F2 G3 F|[M:5/4] E2 DC2D E2 HD2:|
[V:4]|:[M:4/4] d2d2 A2dc|[M:5/4] F2 Fc2d A2  A2 |\
       [M:4/4] A2d2 c3 d|[M:5/4] A2 Bc2B A2 HD2:|

